X:22
T:Drive The Cold Winter Away. (p)1651.PLFD.022
M:3/4
L:1/4
Q:3/4=90
S:Playford, Dancing Master,1st Ed.,1651.
O:England
H:1651.
Z:Chris Partington.
K:F
D| F>ED| A2 B|c>BA| f2 F|G2 A| B>cB|A3-|A2:|
|:d|c>BA| c2 c|B>AG| B2 B|A>GF| E2 D|f3-|f2 d|
c>BA |c2 c|B>AG| B2 B|A>GF| E>DE|D3-|D3:|
